;FLAVOR:Marlin
M73 P0
M73 R12
;TIME:740
;Filament used: 0.278785m
;Layer height: 0.16
;MINX:92.186
;MINY:93.403
;MINZ:0.12
;MAXX:127.819
;MAXY:126.603
;MAXZ:10.04
;POSTPROCESSED
;Generated with Cura_SteamEngine 4.12.1
M140 S60
M105
M190 S60
M104 S205
M105
M109 S205
M82 ;absolute extrusion mode
M201 X500.00 Y500.00 Z100.00 E5000.00 ;Setup machine max acceleration
M203 X500.00 Y500.00 Z10.00 E50.00 ;Setup machine max feedrate
M204 P500.00 R1000.00 T500.00 ;Setup Print/Retract/Travel acceleration
M205 X8.00 Y8.00 Z0.40 E5.00 ;Setup Jerk
M220 S100 ;Reset Feedrate
M221 S100 ;Reset Flowrate

G28 ;Home

G92 E0 ;Reset Extruder
G1 Z2.0 F3000 ;Move Z Axis up
G1 X10.1 Y20 Z0.28 F5000.0 ;Move to start position
G1 X10.1 Y200.0 Z0.28 F1500.0 E15 ;Draw the first line
G1 X10.4 Y200.0 Z0.28 F5000.0 ;Move to side a little
G1 X10.4 Y20 Z0.28 F1500.0 E30 ;Draw the second line
G92 E0 ;Reset Extruder
G1 Z2.0 F3000 ;Move Z Axis up

G92 E0
G92 E0
G1 F2700 E-5
;LAYER_COUNT:63
;LAYER:0
M117 INDICATOR-Layer0
M117 Printing CE5_Creality_Ender_35_Glass_Bed_Clip - Layer 0 of 62
M107
G0 F6000 X96.998 Y97.565 Z0.12
;TYPE:SKIRT
G1 F2700 E0
G1 F1200 X97.423 Y97.156 E0.01177
G1 X97.607 Y96.988 E0.01674
G1 X98.308 Y96.399 E0.03501
G1 X98.583 Y96.187 E0.04194
G1 X99.718 Y95.42 E0.06928
G1 X100.129 Y95.178 E0.0788
G1 X100.956 Y94.737 E0.0975
G1 X101.553 Y94.473 E0.11053
G1 X101.749 Y94.393 E0.11475
G1 X102.757 Y94.037 E0.13609
G1 X103.085 Y93.939 E0.14292
G1 X103.92 Y93.725 E0.16012
G1 X104.157 Y93.674 E0.16496
G1 X104.743 Y93.565 E0.17685
G1 X104.831 Y93.551 E0.17863
G1 X105.762 Y93.443 E0.19734
G1 X106.25 Y93.418 E0.20709
G1 X106.57 Y93.409 E0.21348
G1 X106.877 Y93.405 E0.2196
G1 X115.972 Y93.403 E0.4011
G1 X116.575 Y93.407 E0.41314
G1 X116.677 Y93.406 E0.41517
G1 X117.614 Y93.441 E0.43388
G1 X118.545 Y93.555 E0.4526
G1 X119.462 Y93.748 E0.4713
G1 X120.36 Y94.018 E0.49002
G1 X121.232 Y94.364 E0.50874
G1 X122.071 Y94.783 E0.52745
G1 X122.872 Y95.272 E0.54618
G1 X123.627 Y95.827 E0.56488
G1 X124.333 Y96.445 E0.5836
G1 X124.984 Y97.121 E0.60233
G1 X125.574 Y97.849 E0.62103
G1 X126.101 Y98.625 E0.63975
G1 X126.559 Y99.444 E0.65848
G1 X126.946 Y100.298 E0.67719
G1 X127.259 Y101.182 E0.6959
G1 X127.495 Y102.09 E0.71463
G1 X127.654 Y103.014 E0.73334
G1 X127.741 Y104.24 E0.75786
G1 X127.746 Y104.572 E0.76449
G1 X127.735 Y105.251 E0.77804
G1 X127.73 Y105.364 E0.7803
G1 X127.65 Y107.968 E0.83229
G1 X127.643 Y110.493 E0.88268
G1 X127.708 Y113.011 E0.93295
G1 X127.797 Y114.729 E0.96728
G1 X127.809 Y115.019 E0.97307
G1 X127.816 Y115.297 E0.97862
G1 X127.819 Y115.584 E0.98435
G1 X127.779 Y116.521 E1.00306
G1 X127.659 Y117.451 E1.02177
G1 X127.461 Y118.368 E1.0405
G1 X127.185 Y119.264 E1.05921
G1 X126.834 Y120.134 E1.07793
G1 X126.41 Y120.97 E1.09663
G1 X125.916 Y121.768 E1.11536
G1 X125.356 Y122.52 E1.13407
G1 X124.735 Y123.222 E1.15278
G1 X124.055 Y123.869 E1.17151
G1 X123.323 Y124.455 E1.19022
G1 X122.544 Y124.977 E1.20893
G1 X121.723 Y125.43 E1.22765
G1 X120.866 Y125.812 E1.24637
G1 X119.98 Y126.12 E1.26509
G1 X119.071 Y126.351 E1.28381
G1 X118.146 Y126.504 E1.30252
G1 X117.026 Y126.582 E1.32492
G1 X116.071 Y126.6 E1.34398
G1 X115.867 Y126.602 E1.34805
G1 X107.047 Y126.603 E1.52407
G1 X106.386 Y126.593 E1.53726
G1 X105.449 Y126.539 E1.55599
G1 X104.889 Y126.468 E1.56725
G1 X104.804 Y126.455 E1.56897
G1 X104.107 Y126.325 E1.58312
G1 X103.679 Y126.231 E1.59186
G1 X102.773 Y125.991 E1.61057
G1 X102.2 Y125.795 E1.62265
G1 X102.004 Y125.722 E1.62683
G1 X101.375 Y125.466 E1.64038
G1 X101.159 Y125.37 E1.6451
G1 X100.133 Y124.848 E1.66807
G1 X99.878 Y124.701 E1.67394
G1 X99.105 Y124.211 E1.69221
G1 X99.017 Y124.15 E1.69434
G1 X98.539 Y123.8 E1.70617
G1 X98.329 Y123.637 E1.71147
G1 X97.669 Y123.081 E1.72869
G1 X97.457 Y122.888 E1.73441
G1 X96.963 Y122.409 E1.74815
G1 X96.775 Y122.215 E1.75354
G1 X96.271 Y121.658 E1.76853
G1 X96.184 Y121.555 E1.77122
G1 X95.703 Y120.944 E1.78674
G1 X95.343 Y120.451 E1.79892
G1 X94.768 Y119.579 E1.81976
G1 X94.6 Y119.296 E1.82633
G1 X94.287 Y118.732 E1.8392
G1 X94.119 Y118.407 E1.8465
G1 X93.865 Y117.881 E1.85816
G1 X93.65 Y117.4 E1.86868
G1 X93.606 Y117.297 E1.87091
G1 X93.388 Y116.745 E1.88275
G1 X93.268 Y116.416 E1.88974
G1 X93.173 Y116.145 E1.89547
G1 X93.118 Y115.981 E1.89893
G1 X92.964 Y115.484 E1.90931
G1 X92.867 Y115.142 E1.9164
G1 X92.731 Y114.61 E1.92736
G1 X92.652 Y114.267 E1.93439
G1 X92.54 Y113.717 E1.94559
G1 X92.442 Y113.164 E1.95679
G1 X92.343 Y112.483 E1.97053
G1 X92.279 Y111.918 E1.98187
G1 X92.222 Y111.221 E1.99583
G1 X92.198 Y110.734 E2.00556
G1 X92.186 Y110.034 E2.01953
G1 X92.195 Y109.412 E2.03195
G1 X92.227 Y108.722 E2.04573
G1 X92.263 Y108.257 E2.05504
G1 X92.337 Y107.574 E2.06875
G1 X92.419 Y106.991 E2.0805
G1 X92.544 Y106.276 E2.09498
G1 X92.655 Y105.744 E2.10583
G1 X92.768 Y105.256 E2.11582
G1 X92.845 Y104.956 E2.122
G1 X93.141 Y103.99 E2.14217
G1 X93.43 Y103.181 E2.15931
G1 X93.683 Y102.539 E2.17308
G1 X93.735 Y102.418 E2.17571
G1 X93.964 Y101.919 E2.18667
G1 X94.114 Y101.613 E2.19347
G1 X94.326 Y101.202 E2.20269
G1 X94.401 Y101.064 E2.20583
G1 X94.63 Y100.664 E2.21503
G1 X94.766 Y100.437 E2.22031
G1 X95.094 Y99.922 E2.23249
G1 X95.287 Y99.637 E2.23936
G1 X95.643 Y99.142 E2.25153
G1 X95.812 Y98.92 E2.2571
G1 X96.342 Y98.275 E2.27376
G1 X96.558 Y98.032 E2.28025
G1 X96.938 Y97.626 E2.29134
G1 X96.998 Y97.565 E2.29305
G0 F6000 X97.283 Y97.846
G1 F1200 X97.693 Y97.451 E2.30441
G1 X97.877 Y97.283 E2.30938
G1 X98.552 Y96.716 E2.32698
G1 X98.827 Y96.504 E2.33391
G1 X99.921 Y95.765 E2.36025
G1 X100.332 Y95.523 E2.36977
G1 X101.145 Y95.091 E2.38814
G1 X101.704 Y94.843 E2.40035
G1 X101.9 Y94.763 E2.40457
G1 X102.871 Y94.421 E2.42511
G1 X103.199 Y94.323 E2.43195
G1 X104.004 Y94.116 E2.44853
G1 X104.241 Y94.065 E2.45337
M73 P1
G1 X104.806 Y93.96 E2.46484
G1 X104.894 Y93.946 E2.46662
G1 X106.261 Y93.818 E2.49402
G1 X106.581 Y93.809 E2.50041
G1 X106.877 Y93.805 E2.50631
G1 X115.969 Y93.803 E2.68775
G1 X116.574 Y93.807 E2.69983
G1 X116.679 Y93.806 E2.70192
G1 X117.599 Y93.841 E2.7203
G1 X118.512 Y93.955 E2.73866
G1 X119.413 Y94.148 E2.75705
G1 X120.293 Y94.418 E2.77541
G1 X121.146 Y94.764 E2.79378
G1 X121.966 Y95.183 E2.81216
G1 X122.747 Y95.671 E2.83054
G1 X123.482 Y96.225 E2.84891
G1 X124.166 Y96.84 E2.86726
G1 X124.795 Y97.513 E2.88565
G1 X125.363 Y98.238 E2.90403
G1 X125.865 Y99.009 E2.92239
G1 X126.299 Y99.821 E2.94076
G1 X126.661 Y100.668 E2.95914
G1 X126.948 Y101.543 E2.97752
G1 X127.158 Y102.439 E2.99588
G1 X127.289 Y103.35 E3.01425
G1 X127.341 Y104.246 E3.03216
G1 X127.346 Y104.578 E3.03879
G1 X127.335 Y105.233 E3.05186
G1 X127.33 Y105.334 E3.05388
G1 X127.25 Y107.955 E3.10621
G1 X127.243 Y110.502 E3.15704
G1 X127.308 Y113.005 E3.207
G1 X127.398 Y114.75 E3.24187
G1 X127.409 Y115.029 E3.24744
G1 X127.416 Y115.307 E3.25299
G1 X127.419 Y115.584 E3.25852
G1 X127.379 Y116.504 E3.2769
G1 X127.259 Y117.417 E3.29528
G1 X127.061 Y118.316 E3.31365
G1 X126.785 Y119.194 E3.33201
G1 X126.434 Y120.045 E3.35038
G1 X126.011 Y120.863 E3.36876
G1 X125.518 Y121.64 E3.38712
G1 X124.96 Y122.372 E3.40549
G1 X124.34 Y123.053 E3.42387
G1 X123.664 Y123.678 E3.44224
G1 X122.936 Y124.241 E3.46061
G1 X122.161 Y124.739 E3.47899
G1 X121.347 Y125.168 E3.49736
G1 X120.498 Y125.525 E3.51574
G1 X119.622 Y125.807 E3.5341
G1 X118.724 Y126.011 E3.55248
G1 X117.812 Y126.137 E3.57085
G1 X117.019 Y126.182 E3.5867
G1 X116.064 Y126.2 E3.60576
G1 X115.866 Y126.202 E3.60971
G1 X107.053 Y126.203 E3.78559
G1 X106.392 Y126.193 E3.79878
G1 X105.473 Y126.139 E3.81715
G1 X104.949 Y126.072 E3.82769
G1 X104.864 Y126.059 E3.82941
G1 X104.193 Y125.934 E3.84303
G1 X103.765 Y125.84 E3.85177
G1 X102.875 Y125.604 E3.87015
G1 X102.339 Y125.42 E3.88146
G1 X102.143 Y125.347 E3.88563
G1 X101.538 Y125.1 E3.89867
G1 X101.322 Y125.004 E3.90339
G1 X100.333 Y124.501 E3.92553
G1 X100.078 Y124.354 E3.93141
G1 X99.333 Y123.883 E3.949
G1 X99.245 Y123.822 E3.95113
G1 X98.785 Y123.484 E3.96252
G1 X98.575 Y123.321 E3.96783
G1 X97.938 Y122.785 E3.98444
G1 X97.726 Y122.592 E3.99016
G1 X97.25 Y122.131 E4.00339
G1 X97.062 Y121.937 E4.00878
G1 X96.576 Y121.4 E4.02323
G1 X96.489 Y121.297 E4.02592
G1 X96.026 Y120.708 E4.04087
G1 X95.666 Y120.215 E4.05306
G1 X95.112 Y119.375 E4.07314
G1 X94.944 Y119.092 E4.0797
G1 X94.643 Y118.549 E4.09209
G1 X94.475 Y118.224 E4.09939
G1 X94.229 Y117.716 E4.11066
G1 X94.018 Y117.243 E4.12099
G1 X93.974 Y117.14 E4.12323
G1 X93.764 Y116.608 E4.13464
G1 X93.644 Y116.279 E4.14163
G1 X93.552 Y116.017 E4.14717
G1 X93.497 Y115.853 E4.15063
G1 X93.349 Y115.375 E4.16061
G1 X93.252 Y115.033 E4.16771
G1 X93.12 Y114.52 E4.17828
G1 X93.041 Y114.177 E4.1853
G1 X92.934 Y113.648 E4.19607
G1 X92.836 Y113.095 E4.20728
G1 X92.74 Y112.438 E4.22053
G1 X92.676 Y111.873 E4.23188
G1 X92.622 Y111.202 E4.24531
G1 X92.598 Y110.715 E4.25504
G1 X92.586 Y110.04 E4.26851
G1 X92.595 Y109.418 E4.28093
G1 X92.626 Y108.753 E4.29421
G1 X92.662 Y108.288 E4.30352
G1 X92.733 Y107.63 E4.31673
G1 X92.815 Y107.047 E4.32848
G1 X92.935 Y106.358 E4.34243
G1 X93.046 Y105.826 E4.35328
G1 X93.156 Y105.356 E4.36291
G1 X93.233 Y105.056 E4.36909
G1 X93.518 Y104.125 E4.38852
G1 X93.807 Y103.316 E4.40567
G1 X94.05 Y102.697 E4.41894
G1 X94.102 Y102.576 E4.42156
G1 X94.323 Y102.095 E4.43213
G1 X94.473 Y101.789 E4.43893
G1 X94.678 Y101.393 E4.44783
G1 X94.753 Y101.255 E4.45096
G1 X94.973 Y100.869 E4.45983
G1 X95.109 Y100.642 E4.46511
G1 X95.425 Y100.146 E4.47685
G1 X95.618 Y99.861 E4.48371
G1 X95.961 Y99.384 E4.49544
G1 X96.13 Y99.162 E4.50101
G1 X96.641 Y98.541 E4.51706
G1 X96.857 Y98.298 E4.52354
G1 X97.223 Y97.907 E4.53423
G1 X97.283 Y97.846 E4.53594
G0 F6000 X97.568 Y98.126
G1 F1200 X97.962 Y97.746 E4.54686
G1 X98.146 Y97.578 E4.55184
G1 X98.796 Y97.033 E4.56876
G1 X99.071 Y96.821 E4.57569
G1 X100.124 Y96.109 E4.60106
G1 X100.535 Y95.867 E4.61058
G1 X101.332 Y95.444 E4.62858
G1 X101.855 Y95.213 E4.63999
G1 X102.051 Y95.133 E4.64422
G1 X102.986 Y94.804 E4.664
G1 X103.314 Y94.706 E4.67083
G1 X104.088 Y94.507 E4.68678
G1 X104.325 Y94.456 E4.69162
G1 X104.868 Y94.355 E4.70264
G1 X104.956 Y94.341 E4.70442
G1 X106.272 Y94.218 E4.73079
G1 X106.592 Y94.209 E4.73718
G1 X106.877 Y94.205 E4.74287
G1 X115.967 Y94.203 E4.92427
G1 X116.574 Y94.207 E4.93638
G1 X116.681 Y94.206 E4.93852
G1 X117.584 Y94.241 E4.95655
G1 X118.48 Y94.355 E4.97458
G1 X119.362 Y94.548 E4.9926
G1 X120.223 Y94.819 E5.01061
G1 X121.058 Y95.164 E5.02864
G1 X121.858 Y95.582 E5.04665
G1 X122.619 Y96.069 E5.06468
G1 X123.333 Y96.622 E5.0827
G1 X123.996 Y97.235 E5.10072
G1 X124.602 Y97.905 E5.11875
M73 P2
G1 X125.146 Y98.626 E5.13678
G1 X125.624 Y99.392 E5.15479
G1 X126.033 Y100.197 E5.17281
G1 X126.369 Y101.035 E5.19083
G1 X126.629 Y101.9 E5.20886
G1 X126.812 Y102.784 E5.22687
G1 X126.916 Y103.682 E5.24491
G1 X126.941 Y104.252 E5.2563
G1 X126.946 Y104.584 E5.26292
G1 X126.936 Y105.214 E5.2755
G1 X126.929 Y105.364 E5.27849
G1 X126.85 Y107.942 E5.32997
G1 X126.843 Y110.476 E5.38053
G1 X126.91 Y113.074 E5.4324
G1 X126.998 Y114.771 E5.46631
G1 X127.009 Y115.039 E5.47166
G1 X127.016 Y115.317 E5.47721
G1 X127.019 Y115.584 E5.48254
G1 X126.979 Y116.486 E5.50056
G1 X126.859 Y117.381 E5.51858
G1 X126.661 Y118.262 E5.5366
G1 X126.386 Y119.122 E5.55462
G1 X126.035 Y119.955 E5.57265
G1 X125.612 Y120.753 E5.59068
G1 X125.121 Y121.51 E5.60868
G1 X124.564 Y122.221 E5.62671
G1 X123.946 Y122.881 E5.64475
G1 X123.273 Y123.482 E5.66276
G1 X122.549 Y124.022 E5.68078
G1 X121.78 Y124.496 E5.69881
G1 X120.973 Y124.9 E5.71682
G1 X120.132 Y125.231 E5.73486
G1 X119.266 Y125.486 E5.75287
G1 X118.381 Y125.664 E5.77089
G1 X117.483 Y125.762 E5.78891
G1 X117.011 Y125.782 E5.79834
G1 X115.866 Y125.802 E5.8212
G1 X107.059 Y125.803 E5.99695
G1 X106.398 Y125.793 E6.01014
G1 X105.496 Y125.739 E6.02817
G1 X105.01 Y125.677 E6.03795
G1 X104.925 Y125.664 E6.03967
G1 X104.279 Y125.544 E6.05278
G1 X103.851 Y125.45 E6.06152
G1 X102.978 Y125.217 E6.07956
G1 X102.479 Y125.046 E6.09008
G1 X102.283 Y124.973 E6.09426
G1 X101.7 Y124.735 E6.10682
G1 X101.484 Y124.639 E6.11154
G1 X100.533 Y124.155 E6.13283
G1 X100.278 Y124.008 E6.13871
G1 X99.561 Y123.554 E6.15564
G1 X99.473 Y123.493 E6.15778
G1 X99.03 Y123.168 E6.16874
G1 X98.82 Y123.005 E6.17405
G1 X98.207 Y122.49 E6.19003
G1 X97.995 Y122.297 E6.19575
G1 X97.537 Y121.852 E6.20849
G1 X97.349 Y121.658 E6.21388
G1 X96.882 Y121.142 E6.22777
G1 X96.795 Y121.039 E6.23046
G1 X96.349 Y120.472 E6.24486
G1 X95.989 Y119.979 E6.25704
G1 X95.456 Y119.171 E6.27636
G1 X95.288 Y118.888 E6.28292
G1 X94.998 Y118.365 E6.29486
G1 X94.83 Y118.04 E6.30216
G1 X94.594 Y117.551 E6.313
G1 X94.386 Y117.086 E6.32316
G1 X94.342 Y116.983 E6.3254
G1 X94.14 Y116.471 E6.33638
G1 X94.02 Y116.142 E6.34337
G1 X93.931 Y115.89 E6.3487
G1 X93.876 Y115.726 E6.35215
G1 X93.734 Y115.266 E6.36176
G1 X93.637 Y114.924 E6.36886
G1 X93.51 Y114.43 E6.37903
G1 X93.431 Y114.087 E6.38606
G1 X93.327 Y113.578 E6.39643
G1 X93.229 Y113.025 E6.40763
G1 X93.138 Y112.393 E6.42038
G1 X93.074 Y111.828 E6.43172
G1 X93.021 Y111.182 E6.44466
G1 X92.997 Y110.695 E6.45439
G1 X92.986 Y110.045 E6.46736
G1 X92.995 Y109.423 E6.47978
G1 X93.024 Y108.784 E6.49254
G1 X93.06 Y108.319 E6.50185
G1 X93.129 Y107.685 E6.51458
G1 X93.211 Y107.102 E6.52632
G1 X93.327 Y106.44 E6.53974
G1 X93.438 Y105.908 E6.55058
G1 X93.543 Y105.455 E6.55986
G1 X93.62 Y105.155 E6.56604
G1 X93.895 Y104.26 E6.58473
G1 X94.184 Y103.451 E6.60187
G1 X94.418 Y102.855 E6.61465
G1 X94.47 Y102.734 E6.61728
G1 X94.682 Y102.271 E6.62744
G1 X94.832 Y101.965 E6.63424
G1 X95.029 Y101.584 E6.6428
G1 X95.104 Y101.446 E6.64593
G1 X95.316 Y101.075 E6.65446
G1 X95.452 Y100.848 E6.65974
G1 X95.756 Y100.371 E6.67103
G1 X95.949 Y100.086 E6.6779
G1 X96.279 Y99.627 E6.68918
G1 X96.448 Y99.405 E6.69475
G1 X96.94 Y98.806 E6.71022
G1 X97.156 Y98.563 E6.7167
G1 X97.508 Y98.187 E6.72698
G1 X97.568 Y98.126 E6.72869
G1 F2700 E1.72869
;MESH:Creality_Ender_35_Glass_Bed_Clip.stl
G0 F6000 X103.178 Y106.596
G0 X104.158 Y107.059
G0 X104.04 Y110.446
G0 X104.232 Y111.642
G0 X104.641 Y112.714
G0 X105.252 Y113.581
G0 X105.76 Y114.006
G0 X106.224 Y114.226
G0 X107.548 Y114.58
;TYPE:WALL-INNER
G1 F2700 E6.72869
G1 F1200 X107.547 Y105.49 E6.91009
G1 X106.613 Y105.567 E6.92879
G1 X106.284 Y105.641 E6.93552
G1 X105.968 Y105.767 E6.94231
G1 X105.672 Y105.934 E6.94909
G1 X105.392 Y106.142 E6.95606
G1 X105.135 Y106.385 E6.96311
G1 X104.9 Y106.657 E6.97029
G1 X104.687 Y106.96 E6.97768
G1 X104.497 Y107.289 E6.98526
G1 X104.332 Y107.639 E6.99298
G1 X104.192 Y108.01 E7.0009
G1 X104.076 Y108.394 E7.0089
G1 X103.985 Y108.792 E7.01705
G1 X103.919 Y109.203 E7.02535
G1 X103.88 Y109.618 E7.03367
G1 X103.867 Y110.04 E7.0421
G1 X103.88 Y110.457 E7.05042
G1 X103.919 Y110.877 E7.05884
G1 X103.985 Y111.286 E7.06711
G1 X104.076 Y111.684 E7.07526
G1 X104.193 Y112.07 E7.08331
G1 X104.334 Y112.439 E7.09119
G1 X104.498 Y112.789 E7.0989
G1 X104.688 Y113.117 E7.10647
G1 X104.9 Y113.419 E7.11383
G1 X105.135 Y113.693 E7.12103
G1 X105.395 Y113.938 E7.12816
G1 X105.673 Y114.142 E7.13504
G1 X105.97 Y114.309 E7.14184
G1 X106.285 Y114.433 E7.1486
G1 X106.613 Y114.511 E7.15533
G1 X107.548 Y114.58 E7.17404
G0 F6000 X107.148 Y114.149
;TYPE:WALL-OUTER
G1 F1200 X107.147 Y105.924 E7.33818
G1 X106.674 Y105.963 E7.34765
G1 X106.403 Y106.024 E7.35319
M73 P3
G1 X106.141 Y106.129 E7.35882
G1 X105.89 Y106.27 E7.36457
G1 X105.65 Y106.449 E7.37054
G1 X105.424 Y106.662 E7.37674
G1 X105.216 Y106.903 E7.38309
G1 X105.025 Y107.175 E7.38973
G1 X104.852 Y107.475 E7.39664
G1 X104.701 Y107.795 E7.4037
G1 X104.571 Y108.139 E7.41104
G1 X104.463 Y108.497 E7.4185
G1 X104.378 Y108.868 E7.4261
G1 X104.316 Y109.254 E7.4339
G1 X104.279 Y109.643 E7.4417
G1 X104.267 Y110.04 E7.44962
G1 X104.279 Y110.432 E7.45745
G1 X104.316 Y110.826 E7.46535
G1 X104.378 Y111.209 E7.47309
G1 X104.463 Y111.581 E7.4807
G1 X104.572 Y111.941 E7.48821
G1 X104.702 Y112.282 E7.49549
G1 X104.853 Y112.603 E7.50257
G1 X105.026 Y112.902 E7.50947
G1 X105.216 Y113.173 E7.51607
G1 X105.425 Y113.416 E7.52247
G1 X105.652 Y113.63 E7.52869
G1 X105.89 Y113.805 E7.53459
G1 X106.142 Y113.947 E7.54036
G1 X106.405 Y114.05 E7.546
G1 X106.674 Y114.114 E7.55151
